packages/icons/src/SVG/user-badge.svg

<svg width="12" height="12" viewBox="0 0 12 12" >
<path fill-rule="evenodd" clip-rule="evenodd" d="M12 6C12 9.31371 9.31371 12 6 12C2.68629 12 0 9.31371 0 6C0 2.68629 2.68629 0 6 0C9.31371 0 12 2.68629 12 6ZM9.44932 9.44013C8.55902 10.3996 7.28713 11 5.875 11C4.48383 11 3.22876 10.4173 2.34057 9.4826C2.4543 9.44384 2.58413 9.40429 2.73652 9.36061C2.79659 9.34345 2.87564 9.32117 3.00924 9.28352L3.03733 9.27561C3.15649 9.24144 3.24815 9.21477 3.33731 9.1881C4.25306 8.90641 4.67886 8.59055 4.74469 8.003C4.00058 7.17877 3.50062 5.73114 3.50062 4.50021C3.50062 2.65922 4.6197 2 6.00042 2C7.38114 2 8.50021 2.65922 8.50021 4.50021C8.50021 5.76865 7.96859 7.26794 7.18615 8.07717C7.27864 8.61722 7.70611 8.91808 8.5827 9.1881C8.67103 9.2156 8.76352 9.24227 8.88268 9.27561L8.91075 9.28352C9.04435 9.32117 9.12341 9.34345 9.18349 9.36061C9.28078 9.3885 9.36882 9.41475 9.44932 9.44013Z" />
</svg>

<!-- Generated by IcoMoon.io -->
<svg version="1.1" xmlns="http://www.w3.org/2000/svg" width="12" height="12" viewBox="0 0 12 12">
<title>user-badge</title>
<path d="M12 6c0-3.314-2.686-6-6-6s-6 2.686-6 6c0 3.314 2.686 6 6 6s6-2.686 6-6zM9.449 9.44c-0.89 0.959-2.162 1.56-3.574 1.56-1.391 0-2.646-0.583-3.534-1.517 0.114-0.039 0.244-0.078 0.396-0.122 0.060-0.017 0.139-0.039 0.273-0.077l0.028-0.008c0.119-0.034 0.211-0.061 0.3-0.088 0.916-0.282 1.342-0.598 1.407-1.185-0.744-0.824-1.244-2.272-1.244-3.503 0-1.841 1.119-2.5 2.5-2.5s2.5 0.659 2.5 2.5c0 1.268-0.532 2.768-1.314 3.577 0.092 0.54 0.52 0.841 1.397 1.111 0.088 0.028 0.181 0.054 0.3 0.088l0.028 0.008c0.134 0.038 0.213 0.060 0.273 0.077 0.097 0.028 0.185 0.054 0.266 0.080z"></path>
</svg>
